X: 60
T: the Walk Home
C: Dan Compton
%D:1996
R: jig
B: PC1 p.218
S: Fiddle Hell Online 2021-10-13 Portland Collection Jam
S: Bob Puckette's Celtic Jam collection (2019)
Z: 2022 John Chambers <jc:trillian.mit.edu> (condensed to 2 staffs)
M: 6/8
L: 1/8
K: D
%%continueall
"^A"|: zG,|: "D"A,DD DEF | "Em7"EDD DEF \
|[1,3 "G"G2 B "D"FGF | "Em7"EDB, B,CD \
:|[2,4 "G"GFE "D"EDB, | "A"~A,3 A, :|
"^B"|: FG | "D"~A3 AGF | DED DEF |\
[1,3 "G"GAB "D"AFD | "A"FEE E \
:|[2,4 "Em/G"GFE "D"FDB, | "A"~A,3 A, |]


